src/assets/subject_icons/past-sessions.svg

<svg fill="none" height="80" viewBox="0 0 80 80" width="80" xmlns="http://www.w3.org/2000/svg"><path d="m40 80c22.0914 0 40-17.9086 40-40s-17.9086-40-40-40-40 17.9086-40 40 17.9086 40 40 40z" fill="#ff8c5f"/><path d="m58.1334 27.8133c-.0015-.5083-.2044-.9953-.5643-1.3542s-.8475-.5605-1.3557-.5605h-32.3947c-.5083 0-.9959.2016-1.3558.5605s-.5628.8459-.5642 1.3542v6.768h36.2347z" fill="#f44747"/><path d="m21.8987 34.5813v21.632c0 .5092.2023.9976.5623 1.3577.3601.36.8485.5623 1.3577.5623h32.3947c.5092 0 .9975-.2023 1.3576-.5623.3601-.3601.5624-.8485.5624-1.3577v-21.632z" fill="#fff"/><g fill="#343440"><path d="m49.0241 30.6826c-.2005-.0014-.3923-.0816-.534-.2233s-.222-.3336-.2234-.534v-8.0587c0-.2008.0798-.3934.2218-.5355.1421-.142.3347-.2218.5356-.2218.2008 0 .3934.0798.5355.2218.142.1421.2218.3347.2218.5355v8.0587c-.0014.2004-.0816.3923-.2234.534-.1417.1417-.3335.2219-.5339.2233z"/><path d="m38.6187 41.0933c.4545.2065.8397.5399 1.1093.96.251.4031.3823.8692.3787 1.344.0091.4374-.0859.8707-.2773 1.264-.164.3392-.4096.6324-.7147.8534-.2538.1918-.5619.2983-.88.304.3755-.0055.745.0942 1.0667.288.3177.2045.5753.4898.7466.8266.2095.4198.3045.8874.2754 1.3556-.029.4682-.181.9204-.4407 1.3111-.3228.4515-.7665.8027-1.28 1.0133-.5991.2509-1.2439.3744-1.8933.3627-1.808 0-2.9974-.8053-3.584-2.416l1.4826-.7093c.1017.4997.355.956.7254 1.3066.411.3109.9206.4624 1.4346.4267.5112.0317 1.0162-.1259 1.4187-.4427.1724-.1455.3099-.328.4022-.5339.0923-.2058.1371-.4298.1311-.6554.0221-.2183-.0118-.4387-.0986-.6403s-.2236-.3777-.3974-.5117c-.4759-.2651-1.0195-.3838-1.5626-.3413h-.4534v-1.248h.4107c1.248 0 1.872-.5138 1.872-1.5414.0146-.2109-.0165-.4225-.091-.6204-.0746-.1979-.1909-.3773-.341-.5262-.3457-.2828-.7866-.4221-1.232-.3894-.4566-.0244-.9075.1114-1.2747.384-.3309.2798-.5488.6702-.6133 1.0987l-1.4827-.608c.1832-.6899.6142-1.288 1.2107-1.68.65-.4055 1.4048-.6113 2.1707-.592.6131-.0174 1.2223.1048 1.7813.3573z"/><path d="m46.1812 40.8907v9.9733h-1.6v-7.376c0-.3413 0-.608 0-.8-.3503.3373-.7429.6278-1.168.864-.4186.2404-.8694.42-1.3386.5334l-.2774-1.4187c.3563-.0571.7017-.1686 1.024-.3307.4153-.1898.8117-.4184 1.184-.6826.3051-.2088.5736-.4664.7947-.7627z"/><path d="m30.9334 30.6826c-.2005-.0014-.3923-.0816-.534-.2233s-.222-.3336-.2234-.534v-8.0587c0-.2008.0798-.3934.2218-.5355.1421-.142.3347-.2218.5356-.2218.2008 0 .3934.0798.5355.2218.142.1421.2218.3347.2218.5355v8.0587c-.0014.2004-.0816.3923-.2234.534-.1417.1417-.3335.2219-.5339.2233z"/></g></svg>

<svg width="80" height="80" viewBox="0 0 80 80" fill="none" xmlns="http://www.w3.org/2000/svg">
<path d="M40 80C62.0914 80 80 62.0914 80 40C80 17.9086 62.0914 0 40 0C17.9086 0 0 17.9086 0 40C0 62.0914 17.9086 80 40 80Z" fill="#FF8C5F"/>
<path d="M58.1334 27.8133C58.1319 27.305 57.929 26.818 57.5691 26.4591C57.2092 26.1002 56.7216 25.8986 56.2134 25.8986H23.8187C23.3104 25.8986 22.8228 26.1002 22.4629 26.4591C22.103 26.818 21.9001 27.305 21.8987 27.8133V34.5813H58.1334V27.8133Z" fill="#F44747"/>
<path d="M21.8987 34.5813V56.2133C21.8987 56.7225 22.101 57.2109 22.461 57.571C22.8211 57.931 23.3095 58.1333 23.8187 58.1333H56.2134C56.7226 58.1333 57.2109 57.931 57.571 57.571C57.9311 57.2109 58.1334 56.7225 58.1334 56.2133V34.5813H21.8987Z" fill="white"/>
<path d="M49.0241 30.6826C48.8236 30.6812 48.6318 30.601 48.4901 30.4593C48.3484 30.3176 48.2681 30.1257 48.2667 29.9253V21.8666C48.2667 21.6658 48.3465 21.4732 48.4885 21.3311C48.6306 21.1891 48.8232 21.1093 49.0241 21.1093C49.2249 21.1093 49.4175 21.1891 49.5596 21.3311C49.7016 21.4732 49.7814 21.6658 49.7814 21.8666V29.9253C49.78 30.1257 49.6998 30.3176 49.558 30.4593C49.4163 30.601 49.2245 30.6812 49.0241 30.6826Z" fill="#343440"/>
<path d="M38.6187 41.0933C39.0732 41.2998 39.4584 41.6332 39.728 42.0533C39.979 42.4564 40.1103 42.9225 40.1067 43.3973C40.1158 43.8347 40.0208 44.268 39.8294 44.6613C39.6654 45.0005 39.4198 45.2937 39.1147 45.5147C38.8609 45.7065 38.5528 45.813 38.2347 45.8187C38.6102 45.8132 38.9797 45.9129 39.3014 46.1067C39.6191 46.3112 39.8767 46.5965 40.048 46.9333C40.2575 47.3531 40.3525 47.8207 40.3234 48.2889C40.2944 48.7571 40.1424 49.2093 39.8827 49.6C39.5599 50.0515 39.1162 50.4027 38.6027 50.6133C38.0036 50.8642 37.3588 50.9877 36.7094 50.976C34.9014 50.976 33.712 50.1707 33.1254 48.56L34.608 47.8507C34.7097 48.3504 34.963 48.8067 35.3334 49.1573C35.7444 49.4682 36.254 49.6197 36.768 49.584C37.2792 49.6157 37.7842 49.4581 38.1867 49.1413C38.3591 48.9958 38.4966 48.8133 38.5889 48.6074C38.6812 48.4016 38.726 48.1776 38.72 47.952C38.7421 47.7337 38.7082 47.5133 38.6214 47.3117C38.5346 47.1101 38.3978 46.934 38.224 46.8C37.7481 46.5349 37.2045 46.4162 36.6614 46.4587H36.208V45.2107H36.6187C37.8667 45.2107 38.4907 44.6969 38.4907 43.6693C38.5053 43.4584 38.4742 43.2468 38.3997 43.0489C38.3251 42.851 38.2088 42.6716 38.0587 42.5227C37.713 42.2399 37.2721 42.1006 36.8267 42.1333C36.3701 42.1089 35.9192 42.2447 35.552 42.5173C35.2211 42.7971 35.0032 43.1875 34.9387 43.616L33.456 43.008C33.6392 42.3181 34.0702 41.72 34.6667 41.328C35.3167 40.9225 36.0715 40.7167 36.8374 40.736C37.4505 40.7186 38.0597 40.8408 38.6187 41.0933Z" fill="#343440"/>
<path d="M46.1812 40.8907V50.864H44.5812V43.488C44.5812 43.1467 44.5812 42.88 44.5812 42.688C44.2309 43.0253 43.8383 43.3158 43.4132 43.552C42.9946 43.7924 42.5438 43.972 42.0746 44.0854L41.7972 42.6667C42.1535 42.6096 42.4989 42.4981 42.8212 42.336C43.2365 42.1462 43.6329 41.9176 44.0052 41.6534C44.3103 41.4446 44.5788 41.187 44.7999 40.8907H46.1812Z" fill="#343440"/>
<path d="M30.9334 30.6826C30.7329 30.6812 30.5411 30.601 30.3994 30.4593C30.2577 30.3176 30.1774 30.1257 30.176 29.9253V21.8666C30.176 21.6658 30.2558 21.4732 30.3978 21.3311C30.5399 21.1891 30.7325 21.1093 30.9334 21.1093C31.1342 21.1093 31.3268 21.1891 31.4689 21.3311C31.6109 21.4732 31.6907 21.6658 31.6907 21.8666V29.9253C31.6893 30.1257 31.6091 30.3176 31.4673 30.4593C31.3256 30.601 31.1338 30.6812 30.9334 30.6826Z" fill="#343440"/>
</svg>
